icons/evolvere-blue-folders-flat-vivid-dark-fallback/places/64/user-trash.svg

<?xml version="1.0" encoding="UTF-8" standalone="no"?>
<!-- Created with Inkscape (http://www.inkscape.org/) -->

<svg
   xmlns:dc="http://purl.org/dc/elements/1.1/"
   xmlns:cc="http://creativecommons.org/ns#"
   xmlns:rdf="http://www.w3.org/1999/02/22-rdf-syntax-ns#"
   xmlns:svg="http://www.w3.org/2000/svg"
   xmlns="http://www.w3.org/2000/svg"
   xmlns:sodipodi="http://sodipodi.sourceforge.net/DTD/sodipodi-0.dtd"
   xmlns:inkscape="http://www.inkscape.org/namespaces/inkscape"
   width="64"
   height="64"
   id="svg13094"
   version="1.1"
   inkscape:version="0.91+devel r"
   sodipodi:docname="user-trash.svg">
  <sodipodi:namedview
     id="base"
     pagecolor="#ffffff"
     bordercolor="#666666"
     borderopacity="1.0"
     inkscape:pageopacity="0"
     inkscape:pageshadow="2"
     inkscape:zoom="8.0000004"
     inkscape:cx="1.200328"
     inkscape:cy="27.70237"
     inkscape:document-units="px"
     inkscape:current-layer="svg13094"
     showgrid="true"
     inkscape:snap-bbox="true"
     inkscape:bbox-paths="true"
     inkscape:bbox-nodes="true"
     inkscape:snap-bbox-edge-midpoints="true"
     inkscape:snap-bbox-midpoints="true"
     inkscape:object-paths="true"
     inkscape:snap-intersection-paths="true"
     inkscape:object-nodes="true"
     inkscape:snap-smooth-nodes="true"
     inkscape:snap-midpoints="true"
     inkscape:snap-object-midpoints="true"
     inkscape:snap-center="true"
     showguides="true"
     inkscape:guide-bbox="true"
     inkscape:window-width="1920"
     inkscape:window-height="1023"
     inkscape:window-x="-10"
     inkscape:window-y="35"
     inkscape:window-maximized="1"
     inkscape:snap-global="true"
     fit-margin-top="0"
     fit-margin-left="0"
     fit-margin-right="0"
     fit-margin-bottom="0"
     showborder="true"
     inkscape:showpageshadow="false"
     inkscape:snap-page="true">
    <inkscape:grid
       type="xygrid"
       id="grid3075"
       empspacing="5"
       visible="true"
       enabled="true"
       snapvisiblegridlinesonly="true"
       originx="1.6362304e-08px"
       originy="18px" />
  </sodipodi:namedview>
  <defs
     id="defs13096" />
  <metadata
     id="metadata13099">
    <rdf:RDF>
      <cc:Work
         rdf:about="">
        <dc:format>image/svg+xml</dc:format>
        <dc:type
           rdf:resource="http://purl.org/dc/dcmitype/StillImage" />
        <dc:title></dc:title>
      </cc:Work>
    </rdf:RDF>
  </metadata>
  <path
     id="path4218"
     d="m 0,4 0,30 0,28 2,2 30,0 30,0 2,-2 L 64,34 64,4 32,4 0,4 z"
     style="color:#000000;fill:#8da3b1;fill-opacity:1;fill-rule:nonzero;stroke:none;stroke-width:2.28571415;marker:none;visibility:visible;display:inline;overflow:visible;enable-background:accumulate"
     inkscape:connector-curvature="0" />
  <path
     style="color:#000000;fill:#d8eaf5;fill-opacity:1;fill-rule:nonzero;stroke:none;marker:none;visibility:visible;display:inline;overflow:visible;enable-background:accumulate;stroke-width:2.28571415"
     d="M 2 0 L 0 1 L 0 4 L 32 4 L 64 4 L 64 1 L 62 0 L 32 0 L 2 0 z "
     id="path6502" />
  <path
     d="M 64,6 62,4 64,3 z"
     id="path3028"
     style="fill:#b4c8d4;fill-opacity:1"
     inkscape:connector-curvature="0" />
  <g
     id="g3043"
     inkscape:export-filename="folder.png"
     inkscape:export-xdpi="90"
     inkscape:export-ydpi="90"
     transform="translate(-0.62500009,0.082283)" />
  <g
     id="scalable"
     transform="matrix(1.0385892,0,0,1.0385892,1214.7222,1878.8121)"
     inkscape:label="#g3701"
     style="fill:#ffffff" />
  <path
     style="fill:#162936;fill-opacity:0.39803219"
     d="m 37.567693,23.99057 -9.161408,0.01886 c 0.99734,0.59603 2.315014,1.930059 3.404606,3.459113 1.21703,1.707895 2.189827,3.672696 2.918234,5.389927 l -2.586997,1.412994 8.262037,-0.01886 3.832278,-6.825983 -2.035635,1.299788 -1.31656,-2.316557 C 40.01184,25.097861 39.212697,24.138251 37.567693,23.99057 z M 26.31195,24.17296 c -0.520103,0.007 -1.079709,0.110575 -1.683435,0.335429 l -3.620536,5.427663 7.039817,4.419278 3.412991,-6.551349 C 30.397331,26.329683 28.817899,24.139337 26.31195,24.17296 z m 19.02512,10.134153 -7.088037,4.291395 3.509427,6.465397 2.80922,0.03145 c 1.648275,0.01781 4.305119,-2.271344 4.201248,-3.916134 L 45.33707,34.307118 z m -30.041869,0.142556 2.64989,1.454924 -2.716976,5.540869 c 0.678322,1.741045 1.982079,3.215241 3.855339,3.651986 l 2.880497,0.05031 2.505236,-5.287202 2.601671,1.557649 -3.83647,-6.968539 -7.939187,0 z m 21.295555,8.597467 -3.77777,6.777765 3.77777,6.681328 0.01886,-2.754711 1.836475,0 c 5.97284,-0.0025 6.802586,-4.169981 9.681322,-10.05868 -0.901988,1.085964 -2.147483,1.664928 -3.568127,1.815509 l -7.94967,0.01677 -0.01886,-2.477983 z m -21.056561,0.545072 c 1.944148,3.690173 3.927515,8.92747 8.17818,10.220106 l 6.513614,0 0.01886,-0.02516 0.01886,-8.21382 -5.62892,0 c -1.857608,-0.0039 -3.714711,-0.0061 -5.572316,-0.01048 -0.968545,-9.8e-5 -2.637215,-1.160485 -3.528294,-1.970647 z"
     id="path4697"
     inkscape:connector-curvature="0" />
  <path
     style="color:#000000;fill:#404957;fill-opacity:0.230837;fill-rule:nonzero;stroke:none;stroke-width:1;marker:none;visibility:visible;display:inline;overflow:visible;enable-background:accumulate"
     d="M 1.6362304e-8,15 64,15 64,20 5,20 z"
     id="rect4208"
     inkscape:connector-curvature="0"
     sodipodi:nodetypes="ccccc" />
  <path
     inkscape:connector-curvature="0"
     d="M 0,6 2,4 0,3 Z"
     id="path3028-3"
     style="fill:#edf5fa;fill-opacity:1" />
</svg>

<svg xmlns="http://www.w3.org/2000/svg" viewBox="0 0 64 64"><g color="#000"><path d="m0 4v30 28l2 2h30 30l2-2v-28-30h-32-32" fill="#8da3b1"/><path d="m2 0l-2 1v3h32 32v-3l-2-1h-30-30" fill="#d8eaf5"/></g><path d="m64 6l-2-2 2-1z" fill="#b4c8d4"/><path d="m37.568 23.991l-9.161.019c.997.596 2.315 1.93 3.405 3.459 1.217 1.708 2.19 3.673 2.918 5.39l-2.587 1.413 8.262-.019 3.832-6.826-2.036 1.3-1.317-2.317c-.872-1.312-1.672-2.272-3.317-2.419m-11.256.182c-.52.007-1.08.111-1.683.335l-3.621 5.428 7.04 4.419 3.413-6.551c-1.063-1.474-2.643-3.665-5.149-3.631m19.03 10.134l-7.088 4.291 3.509 6.465 2.809.031c1.648.018 4.305-2.271 4.201-3.916l-3.432-6.872m-30.04.143l2.65 1.455-2.717 5.541c.678 1.741 1.982 3.215 3.855 3.652l2.88.05 2.505-5.287 2.602 1.558-3.836-6.969h-7.939m21.296 8.597l-3.778 6.778 3.778 6.681.019-2.755h1.836c5.973-.002 6.803-4.17 9.681-10.06-.902 1.086-2.147 1.665-3.568 1.816l-7.95.017-.019-2.478m-21.06.545c1.944 3.69 3.928 8.927 8.178 10.22h6.514l.019-.025.019-8.214h-5.629c-1.858-.004-3.715-.006-5.572-.01-.969 0-2.637-1.16-3.528-1.971" fill="#162936" fill-opacity=".398"/><path d="m0 15h64v5h-59z" fill="#404957" fill-opacity=".231" color="#000"/><path d="m0 6l2-2-2-1" fill="#edf5fa"/></svg>
